X:1
T:The Chatsworth Wreck
M:3/4
L:1/2
K:F
 zC/4-F/4| A A/2| G F/2| F/2 E-| E E/2| G G/2| c c/2| A3/2| zA/4-B/4|\
 c A/2| d A/2| c/2 B-| B B/2| A F/2| G A/2| F3/2-| F/2 z|
